src/assets/images/icons/telLogo.svg

<svg width="64" height="63" viewBox="0 0 64 63" fill="none" xmlns="http://www.w3.org/2000/svg">
<circle cx="31.6309" cy="31.5" r="31" fill="#111C55" stroke="#273270"/>
<path d="M24.1049 22.1408C23.9703 22.1449 23.8379 22.1743 23.7157 22.2272C23.5934 22.28 23.4837 22.3554 23.393 22.4487C23.3024 22.542 23.2326 22.6514 23.1879 22.7704C23.1432 22.8894 23.1245 23.0156 23.1328 23.1416C23.2673 25.3015 23.9013 30.5716 26.9368 33.8583C30.5718 37.8181 35.3057 39.1824 40.1626 38.9808C40.4229 38.9662 40.6676 38.8596 40.8474 38.6826C41.0271 38.5055 41.1284 38.2712 41.1309 38.0268V34.5674C41.1278 34.2446 41.0091 33.9322 40.7938 33.6802C40.5785 33.4282 40.2791 33.2513 39.9435 33.1779L37.5113 32.6739C37.2104 32.6138 36.8973 32.6397 36.6123 32.7481C36.3273 32.8566 36.0837 33.0427 35.9128 33.2823L35.3749 34.0454C35.3255 34.1153 35.2516 34.1668 35.1661 34.1911C35.0805 34.2154 34.9885 34.211 34.9061 34.1786C33.6688 33.6783 28.7389 31.5184 28.1971 27.8753C28.1865 27.805 28.1984 27.7333 28.2312 27.6692C28.264 27.6051 28.3163 27.5516 28.3816 27.5154L29.3576 26.9574C29.6253 26.802 29.8355 26.5732 29.9599 26.3022C30.0843 26.0311 30.1168 25.7308 30.053 25.4419L29.5189 23.1236C29.4409 22.7988 29.245 22.5093 28.9648 22.3045C28.6846 22.0998 28.3373 21.9923 27.982 22.0004L24.1049 22.1408Z" stroke="#F6B426"/>
</svg>

<svg xmlns="http://www.w3.org/2000/svg" width="64" height="63" fill="none"><circle cx="31.631" cy="31.5" r="31" fill="#111C55" stroke="#273270"/><path stroke="#F6B426" d="M24.105 22.14a1.062 1.062 0 0 0-.39.087 1.006 1.006 0 0 0-.322.222.934.934 0 0 0-.205.321.888.888 0 0 0-.055.372c.134 2.16.768 7.43 3.804 10.716 3.635 3.96 8.369 5.324 13.226 5.123.26-.015.505-.121.684-.298a.934.934 0 0 0 .284-.656v-3.46a1.385 1.385 0 0 0-.337-.887 1.553 1.553 0 0 0-.85-.502l-2.433-.504c-.3-.06-.614-.034-.899.074a1.521 1.521 0 0 0-.7.534l-.537.763a.383.383 0 0 1-.209.146.408.408 0 0 1-.26-.012c-1.237-.5-6.167-2.66-6.709-6.304a.34.34 0 0 1 .034-.206.369.369 0 0 1 .15-.154l.977-.558c.267-.155.477-.384.602-.655.124-.27.157-.571.093-.86l-.534-2.318a1.433 1.433 0 0 0-.554-.82 1.607 1.607 0 0 0-.983-.304l-3.877.14Z"/></svg>
